images/ICONOS/EXPERIENCIA/DESARROLLO WEB ICON.svg

<svg width="48" height="40" viewBox="0 0 48 40" fill="none" xmlns="http://www.w3.org/2000/svg">
<path d="M48 3.80059C48 14.6038 48 25.408 48 36.2112C46.9097 38.5697 45.1047 39.9835 42.2705 39.9846C30.1022 39.9899 17.934 40.0271 5.76692 39.9622C2.08445 39.9431 0.0679135 37.8367 0.0656515 34.3676C0.0577346 25.0357 0.200238 15.7006 0.0023166 6.37186C-0.0904238 1.97719 2.6081 -0.03983 6.88094 0.000595418C18.2993 0.106978 29.7188 0.083574 41.1372 0.00697839C44.339 -0.015362 46.7175 0.923998 48 3.80059ZM1.95326 12.2091C1.83111 12.4101 1.71688 12.5101 1.71575 12.6112C1.69992 20.0016 1.61509 27.392 1.72932 34.7814C1.76778 37.2293 3.34097 38.341 6.07908 38.3441C18.0528 38.3558 30.0276 38.3569 42.0013 38.3431C44.8525 38.3399 46.3476 37.0984 46.3736 34.4122C46.4449 27.1984 46.3838 19.9825 46.3657 12.7676C46.3657 12.607 46.2458 12.4463 46.1508 12.2091C31.4017 12.2091 16.6481 12.2091 1.95326 12.2091ZM46.4019 10.4282C46.4019 8.72824 46.4585 7.21016 46.3895 5.69739C46.2617 2.91123 44.8819 1.6857 41.9085 1.67081C38.1684 1.65272 34.4282 1.66655 30.6881 1.66655C22.4602 1.66655 14.2323 1.65485 6.00443 1.674C3.35794 1.68038 1.95778 2.76016 1.73498 5.13676C1.57325 6.86335 1.70331 8.61335 1.70331 10.4282C16.6413 10.4282 31.3938 10.4282 46.4019 10.4282Z" fill="url(#paint0_linear_20_10)"/>
<path d="M26.2081 17.3259C25.1439 22.1375 24.1758 26.6077 23.1307 31.062C23.0414 31.4428 22.442 31.7184 22.0789 32.0428C21.8776 31.6152 21.432 31.1428 21.5112 30.7673C22.4567 26.2929 23.4599 21.829 24.5241 17.378C24.6089 17.0248 25.2604 16.7907 25.6483 16.5014C25.8881 16.8556 26.129 17.2099 26.2081 17.3259Z" fill="url(#paint1_linear_20_10)"/>
<path d="M15.1789 24.2142C16.63 25.3876 17.9306 26.3727 19.1306 27.4567C19.428 27.7259 19.3986 28.3142 19.5185 28.7567C19.0344 28.7099 18.4147 28.827 18.0889 28.5887C16.5712 27.4801 15.0737 26.3312 13.7166 25.0567C13.4021 24.761 13.401 23.6621 13.7154 23.3695C15.1224 22.0599 16.6707 20.8791 18.2303 19.7248C18.5063 19.5206 19.0751 19.6674 19.5094 19.6525C19.4382 20.0546 19.5208 20.6089 19.2708 20.8334C18.0188 21.9557 16.6786 22.9919 15.1789 24.2142Z" fill="url(#paint2_linear_20_10)"/>
<path d="M32.8696 24.2163C31.4728 23.078 30.1846 22.0907 28.9903 21.012C28.6748 20.7269 28.6488 20.1567 28.4904 19.7173C29.0163 19.7684 29.6836 19.645 30.0421 19.9014C31.5215 20.9599 32.9092 22.1312 34.3263 23.2663C35.1123 23.8961 35.1157 24.5312 34.3206 25.1641C32.8526 26.3333 31.4185 27.5429 29.8962 28.645C29.5909 28.8663 28.9575 28.6865 28.4757 28.6918C28.5945 28.2897 28.5786 27.7535 28.8557 27.5088C30.1066 26.4003 31.4389 25.3748 32.8696 24.2163Z" fill="url(#paint3_linear_20_10)"/>
<path d="M16.1054 6.37285C15.9324 7.71434 14.6521 8.61753 13.1807 8.39838C11.7206 8.18029 11.0612 7.242 11.0748 5.95583C11.0895 4.63136 12.4659 3.66009 13.8989 3.81009C15.2119 3.94945 16.2615 5.16647 16.1054 6.37285Z" fill="url(#paint4_linear_20_10)"/>
<path d="M8.35356 6.05459C8.37505 7.40459 7.35717 8.3982 5.93213 8.41735C4.49353 8.4365 3.44284 7.48437 3.42022 6.14182C3.3976 4.78544 4.40305 3.80566 5.84052 3.78332C7.28705 3.76098 8.33207 4.70565 8.35356 6.05459Z" fill="url(#paint5_linear_20_10)"/>
<path d="M21.2861 3.80897C22.6874 3.8111 23.7573 4.82706 23.7528 6.14939C23.7483 7.4579 22.6512 8.48024 21.2612 8.47386C19.86 8.46641 18.7855 7.44514 18.7957 6.12812C18.8048 4.82174 19.895 3.80685 21.2861 3.80897Z" fill="url(#paint6_linear_20_10)"/>
<defs>
<linearGradient id="paint0_linear_20_10" x1="48" y1="40" x2="0.255223" y2="-0.302354" gradientUnits="userSpaceOnUse">
<stop stop-color="#2DCF6E"/>
<stop offset="1" stop-color="#1723FF"/>
</linearGradient>
<linearGradient id="paint1_linear_20_10" x1="48" y1="40" x2="0.255223" y2="-0.302354" gradientUnits="userSpaceOnUse">
<stop stop-color="#2DCF6E"/>
<stop offset="1" stop-color="#1723FF"/>
</linearGradient>
<linearGradient id="paint2_linear_20_10" x1="48" y1="40" x2="0.255223" y2="-0.302354" gradientUnits="userSpaceOnUse">
<stop stop-color="#2DCF6E"/>
<stop offset="1" stop-color="#1723FF"/>
</linearGradient>
<linearGradient id="paint3_linear_20_10" x1="48" y1="40" x2="0.255223" y2="-0.302354" gradientUnits="userSpaceOnUse">
<stop stop-color="#2DCF6E"/>
<stop offset="1" stop-color="#1723FF"/>
</linearGradient>
<linearGradient id="paint4_linear_20_10" x1="48" y1="40" x2="0.255223" y2="-0.302354" gradientUnits="userSpaceOnUse">
<stop stop-color="#2DCF6E"/>
<stop offset="1" stop-color="#1723FF"/>
</linearGradient>
<linearGradient id="paint5_linear_20_10" x1="48" y1="40" x2="0.255223" y2="-0.302354" gradientUnits="userSpaceOnUse">
<stop stop-color="#2DCF6E"/>
<stop offset="1" stop-color="#1723FF"/>
</linearGradient>
<linearGradient id="paint6_linear_20_10" x1="48" y1="40" x2="0.255223" y2="-0.302354" gradientUnits="userSpaceOnUse">
<stop stop-color="#2DCF6E"/>
<stop offset="1" stop-color="#1723FF"/>
</linearGradient>
</defs>
</svg>

<svg xmlns="http://www.w3.org/2000/svg" width="48" height="40" fill="none"><path fill="url(#a)" d="M48 3.8v32.411c-1.09 2.359-2.895 3.773-5.73 3.774-12.168.005-24.336.042-36.503-.023-3.683-.019-5.7-2.125-5.701-5.594C.058 25.036.2 15.7.002 6.372-.09 1.977 2.608-.04 6.881 0c11.418.106 22.838.083 34.256.006C44.34-.015 46.717.924 48 3.801ZM1.953 12.21c-.122.2-.236.3-.237.401-.016 7.39-.1 14.781.013 22.17.039 2.448 1.612 3.56 4.35 3.563 11.974.012 23.949.013 35.922 0 2.852-.004 4.347-1.246 4.373-3.932.07-7.214.01-14.43-.008-21.644 0-.161-.12-.322-.215-.559H1.953Zm44.449-1.782c0-1.7.056-3.218-.013-4.73-.127-2.787-1.507-4.012-4.48-4.027-3.74-.018-7.48-.004-11.22-.004-8.229 0-16.457-.012-24.685.007-2.646.006-4.046 1.086-4.269 3.463-.162 1.726-.032 3.476-.032 5.291h44.699Z"/><path fill="url(#b)" d="M26.208 17.326c-1.064 4.811-2.032 9.282-3.077 13.736-.09.38-.689.656-1.052.98-.201-.427-.647-.9-.568-1.275a519.147 519.147 0 0 1 3.013-13.389c.085-.353.736-.587 1.124-.877l.56.825Z"/><path fill="url(#c)" d="M15.179 24.214c1.451 1.174 2.752 2.159 3.952 3.243.297.269.268.857.387 1.3-.484-.047-1.103.07-1.43-.168-1.517-1.109-3.014-2.258-4.371-3.532-.315-.296-.316-1.395-.002-1.688 1.407-1.31 2.956-2.49 4.515-3.644.276-.204.845-.058 1.28-.073-.072.403.01.957-.24 1.181-1.251 1.123-2.591 2.159-4.091 3.381Z"/><path fill="url(#d)" d="M32.87 24.216c-1.397-1.138-2.685-2.125-3.88-3.204-.315-.285-.341-.855-.5-1.295.526.051 1.194-.072 1.552.184 1.48 1.059 2.867 2.23 4.284 3.365.786.63.79 1.265-.005 1.898-1.468 1.17-2.902 2.379-4.425 3.481-.305.221-.939.041-1.42.047.119-.402.103-.939.38-1.183 1.25-1.109 2.583-2.134 4.014-3.293Z"/><path fill="url(#e)" d="M16.105 6.373c-.173 1.341-1.453 2.245-2.924 2.025-1.46-.218-2.12-1.156-2.106-2.442.014-1.325 1.39-2.296 2.824-2.146 1.313.14 2.363 1.356 2.206 2.563Z"/><path fill="url(#f)" d="M8.354 6.055c.021 1.35-.997 2.343-2.422 2.362-1.438.02-2.49-.933-2.512-2.275-.022-1.357.983-2.336 2.42-2.359 1.447-.022 2.492.923 2.514 2.272Z"/><path fill="url(#g)" d="M21.286 3.809c1.401.002 2.471 1.018 2.467 2.34-.005 1.309-1.102 2.331-2.492 2.325-1.401-.008-2.476-1.029-2.465-2.346.009-1.306 1.099-2.321 2.49-2.319Z"/><defs><linearGradient id="a" x1="48" x2=".255" y1="40" y2="-.302" gradientUnits="userSpaceOnUse"><stop stop-color="#2DCF6E"/><stop offset="1" stop-color="#1723FF"/></linearGradient><linearGradient id="b" x1="48" x2=".255" y1="40" y2="-.302" gradientUnits="userSpaceOnUse"><stop stop-color="#2DCF6E"/><stop offset="1" stop-color="#1723FF"/></linearGradient><linearGradient id="c" x1="48" x2=".255" y1="40" y2="-.302" gradientUnits="userSpaceOnUse"><stop stop-color="#2DCF6E"/><stop offset="1" stop-color="#1723FF"/></linearGradient><linearGradient id="d" x1="48" x2=".255" y1="40" y2="-.302" gradientUnits="userSpaceOnUse"><stop stop-color="#2DCF6E"/><stop offset="1" stop-color="#1723FF"/></linearGradient><linearGradient id="e" x1="48" x2=".255" y1="40" y2="-.302" gradientUnits="userSpaceOnUse"><stop stop-color="#2DCF6E"/><stop offset="1" stop-color="#1723FF"/></linearGradient><linearGradient id="f" x1="48" x2=".255" y1="40" y2="-.302" gradientUnits="userSpaceOnUse"><stop stop-color="#2DCF6E"/><stop offset="1" stop-color="#1723FF"/></linearGradient><linearGradient id="g" x1="48" x2=".255" y1="40" y2="-.302" gradientUnits="userSpaceOnUse"><stop stop-color="#2DCF6E"/><stop offset="1" stop-color="#1723FF"/></linearGradient></defs></svg>
